(landing_2_2)
(T1  D=3 CR=2.5 - ZMIN=-2.3 - bullnose end mill)
G90 G94
G17
G21
G28 G91 Z0
G90

(Drill1)
T1
S6000 M3
G54
M8
G0 X7 Y9
Z9
Z4
Z3
G1 Z-2.3 F160
G0 Z4
Y21
Z3
G1 Z-2.3 F160
G0 Z4
X21
Z3
G1 Z-2.3 F160
G0 Z4
Y9
Z3
G1 Z-2.3 F160
G0 Z4
X39 Y5
Z3
G1 Z-2.3 F160
G0 Z4
X59
Z3
G1 Z-2.3 F160
G0 Z4
X39 Y25
Z3
G1 Z-2.3 F160
G0 Z4
Z9

(2D Contour1)
X3.7 Y28.9
Z9
Z3
G1 Z1.15 F150
Z0.15
G19 G2 Y28.6 Z-0.15 J-0.3 K0 F160
G1 Y28.3
G17 G3 X4 Y28 I0.3 J0
G1 X33.638
G3 X34.787 Y28.536 I0 J1.5
G2 X42.889 Y28.889 I4.213 J-3.536
G1 X62.889 Y8.889
G2 X58.141 Y-0.433 I-3.889 J-3.889
G1 X38.269
G2 X37.995 Y-0.407 I0 J1.5
X34.787 Y1.464 I1.005 J5.407
G3 X33.638 Y2 I-1.149 J-0.964
G1 X4
G2 X-0.5 Y6.5 I0 J4.5
G1 Y23.5
G2 X4 Y28 I4.5 J0
G3 X4.3 Y28.3 I0 J0.3
G1 Y28.6
G19 G3 Y28.9 Z0.15 J0 K0.3
G0 Z4
X3.7
Z3
G1 Z2.167 F150
Z0
G2 Y28.6 Z-0.3 J-0.3 K0 F160
G1 Y28.3
G17 G3 X4 Y28 I0.3 J0
G1 X33.638
G3 X34.787 Y28.536 I0 J1.5
G2 X42.889 Y28.889 I4.213 J-3.536
G1 X62.889 Y8.889
G2 X58.141 Y-0.433 I-3.889 J-3.889
G1 X38.269
G2 X37.995 Y-0.407 I0 J1.5
X34.787 Y1.464 I1.005 J5.407
G3 X33.638 Y2 I-1.149 J-0.964
G1 X4
G2 X-0.5 Y6.5 I0 J4.5
G1 Y23.5
G2 X4 Y28 I4.5 J0
G3 X4.3 Y28.3 I0 J0.3
G1 Y28.6
G19 G3 Y28.9 Z0 J0 K0.3
G0 Z4
X3.7
Z3
G1 Z2.017 F150
Z-0.15
G2 Y28.6 Z-0.45 J-0.3 K0 F160
G1 Y28.3
G17 G3 X4 Y28 I0.3 J0
G1 X33.638
G3 X34.787 Y28.536 I0 J1.5
G2 X42.889 Y28.889 I4.213 J-3.536
G1 X62.889 Y8.889
G2 X58.141 Y-0.433 I-3.889 J-3.889
G1 X38.269
G2 X37.995 Y-0.407 I0 J1.5
X34.787 Y1.464 I1.005 J5.407
G3 X33.638 Y2 I-1.149 J-0.964
G1 X4
G2 X-0.5 Y6.5 I0 J4.5
G1 Y23.5
G2 X4 Y28 I4.5 J0
G3 X4.3 Y28.3 I0 J0.3
G1 Y28.6
G19 G3 Y28.9 Z-0.15 J0 K0.3
G0 Z4
X3.7
Z3
G1 Z1.867 F150
Z-0.3
G2 Y28.6 Z-0.6 J-0.3 K0 F160
G1 Y28.3
G17 G3 X4 Y28 I0.3 J0
G1 X33.638
G3 X34.787 Y28.536 I0 J1.5
G2 X42.889 Y28.889 I4.213 J-3.536
G1 X62.889 Y8.889
G2 X58.141 Y-0.433 I-3.889 J-3.889
G1 X38.269
G2 X37.995 Y-0.407 I0 J1.5
X34.787 Y1.464 I1.005 J5.407
G3 X33.638 Y2 I-1.149 J-0.964
G1 X4
G2 X-0.5 Y6.5 I0 J4.5
G1 Y23.5
G2 X4 Y28 I4.5 J0
G3 X4.3 Y28.3 I0 J0.3
G1 Y28.6
G19 G3 Y28.9 Z-0.3 J0 K0.3
G0 Z4
X3.7
Z3
G1 Z1.717 F150
Z-0.45
G2 Y28.6 Z-0.75 J-0.3 K0 F160
G1 Y28.3
G17 G3 X4 Y28 I0.3 J0
G1 X33.638
G3 X34.787 Y28.536 I0 J1.5
G2 X42.889 Y28.889 I4.213 J-3.536
G1 X62.889 Y8.889
G2 X58.141 Y-0.433 I-3.889 J-3.889
G1 X38.269
G2 X37.995 Y-0.407 I0 J1.5
X34.787 Y1.464 I1.005 J5.407
G3 X33.638 Y2 I-1.149 J-0.964
G1 X4
G2 X-0.5 Y6.5 I0 J4.5
G1 Y23.5
G2 X4 Y28 I4.5 J0
G3 X4.3 Y28.3 I0 J0.3
G1 Y28.6
G19 G3 Y28.9 Z-0.45 J0 K0.3
G0 Z4
X3.7
Z3
G1 Z1.567 F150
Z-0.6
G2 Y28.6 Z-0.9 J-0.3 K0 F160
G1 Y28.3
G17 G3 X4 Y28 I0.3 J0
G1 X33.638
G3 X34.787 Y28.536 I0 J1.5
G2 X42.889 Y28.889 I4.213 J-3.536
G1 X62.889 Y8.889
G2 X58.141 Y-0.433 I-3.889 J-3.889
G1 X38.269
G2 X37.995 Y-0.407 I0 J1.5
X34.787 Y1.464 I1.005 J5.407
G3 X33.638 Y2 I-1.149 J-0.964
G1 X4
G2 X-0.5 Y6.5 I0 J4.5
G1 Y23.5
G2 X4 Y28 I4.5 J0
G3 X4.3 Y28.3 I0 J0.3
G1 Y28.6
G19 G3 Y28.9 Z-0.6 J0 K0.3
G0 Z4
X3.7
Z3
G1 Z1.417 F150
Z-0.75
G2 Y28.6 Z-1.05 J-0.3 K0 F160
G1 Y28.3
G17 G3 X4 Y28 I0.3 J0
G1 X33.638
G3 X34.787 Y28.536 I0 J1.5
G2 X42.889 Y28.889 I4.213 J-3.536
G1 X62.889 Y8.889
G2 X58.141 Y-0.433 I-3.889 J-3.889
G1 X38.269
G2 X37.995 Y-0.407 I0 J1.5
X34.787 Y1.464 I1.005 J5.407
G3 X33.638 Y2 I-1.149 J-0.964
G1 X4
G2 X-0.5 Y6.5 I0 J4.5
G1 Y23.5
G2 X4 Y28 I4.5 J0
G3 X4.3 Y28.3 I0 J0.3
G1 Y28.6
G19 G3 Y28.9 Z-0.75 J0 K0.3
G0 Z4
X3.7
Z3
G1 Z1.267 F150
Z-0.9
G2 Y28.6 Z-1.2 J-0.3 K0 F160
G1 Y28.3
G17 G3 X4 Y28 I0.3 J0
G1 X33.638
G3 X34.787 Y28.536 I0 J1.5
G2 X42.889 Y28.889 I4.213 J-3.536
G1 X62.889 Y8.889
G2 X58.141 Y-0.433 I-3.889 J-3.889
G1 X38.269
G2 X37.995 Y-0.407 I0 J1.5
X34.787 Y1.464 I1.005 J5.407
G3 X33.638 Y2 I-1.149 J-0.964
G1 X4
G2 X-0.5 Y6.5 I0 J4.5
G1 Y23.5
G2 X4 Y28 I4.5 J0
G3 X4.3 Y28.3 I0 J0.3
G1 Y28.6
G19 G3 Y28.9 Z-0.9 J0 K0.3
G0 Z4
X3.7
Z3
G1 Z1.117 F150
Z-1.05
G2 Y28.6 Z-1.35 J-0.3 K0 F160
G1 Y28.3
G17 G3 X4 Y28 I0.3 J0
G1 X33.638
G3 X34.787 Y28.536 I0 J1.5
G2 X42.889 Y28.889 I4.213 J-3.536
G1 X62.889 Y8.889
G2 X58.141 Y-0.433 I-3.889 J-3.889
G1 X38.269
G2 X37.995 Y-0.407 I0 J1.5
X34.787 Y1.464 I1.005 J5.407
G3 X33.638 Y2 I-1.149 J-0.964
G1 X4
G2 X-0.5 Y6.5 I0 J4.5
G1 Y23.5
G2 X4 Y28 I4.5 J0
G3 X4.3 Y28.3 I0 J0.3
G1 Y28.6
G19 G3 Y28.9 Z-1.05 J0 K0.3
G0 Z4
X3.7
Z3
G1 Z0.967 F150
Z-1.2
G2 Y28.6 Z-1.5 J-0.3 K0 F160
G1 Y28.3
G17 G3 X4 Y28 I0.3 J0
G1 X15.819
Z-1.4
X21.819
Z-1.5 F150
X33.638 F160
G3 X34.787 Y28.536 I0 J1.5
G2 X42.889 Y28.889 I4.213 J-3.536
G1 X50.768 Y21.01
Z-1.4
X55.01 Y16.768
Z-1.5 F150
X62.889 Y8.889 F160
G2 X58.141 Y-0.433 I-3.889 J-3.889
G1 X38.269
G2 X37.995 Y-0.407 I0 J1.5
X34.787 Y1.464 I1.005 J5.407
G3 X33.638 Y2 I-1.149 J-0.964
G1 X21.819
Z-1.4
X15.819
Z-1.5 F150
X4 F160
G2 X-0.5 Y6.5 I0 J4.5
G1 Y23.5
G2 X4 Y28 I4.5 J0
G3 X4.3 Y28.3 I0 J0.3
G1 Y28.6
G19 G3 Y28.9 Z-1.2 J0 K0.3
G0 Z4
X3.7
Z3
G1 Z0.817 F150
Z-1.35
G2 Y28.6 Z-1.65 J-0.3 K0 F160
G1 Y28.3
G17 G3 X4 Y28 I0.3 J0
G1 X15.819
Z-1.4
X21.819
Z-1.65 F150
X33.638 F160
G3 X34.787 Y28.536 I0 J1.5
G2 X42.889 Y28.889 I4.213 J-3.536
G1 X50.768 Y21.01
Z-1.4
X55.01 Y16.768
Z-1.65 F150
X62.889 Y8.889 F160
G2 X58.141 Y-0.433 I-3.889 J-3.889
G1 X38.269
G2 X37.995 Y-0.407 I0 J1.5
X34.787 Y1.464 I1.005 J5.407
G3 X33.638 Y2 I-1.149 J-0.964
G1 X21.819
Z-1.4
X15.819
Z-1.65 F150
X4 F160
G2 X-0.5 Y6.5 I0 J4.5
G1 Y23.5
G2 X4 Y28 I4.5 J0
G3 X4.3 Y28.3 I0 J0.3
G1 Y28.6
G19 G3 Y28.9 Z-1.35 J0 K0.3
G0 Z4
X3.7
Z3
G1 Z0.667 F150
Z-1.5
G2 Y28.6 Z-1.8 J-0.3 K0 F160
G1 Y28.3
G17 G3 X4 Y28 I0.3 J0
G1 X15.819
Z-1.4
X21.819
Z-1.8 F150
X33.638 F160
G3 X34.787 Y28.536 I0 J1.5
G2 X42.889 Y28.889 I4.213 J-3.536
G1 X50.768 Y21.01
Z-1.4
X55.01 Y16.768
Z-1.8 F150
X62.889 Y8.889 F160
G2 X58.141 Y-0.433 I-3.889 J-3.889
G1 X38.269
G2 X37.995 Y-0.407 I0 J1.5
X34.787 Y1.464 I1.005 J5.407
G3 X33.638 Y2 I-1.149 J-0.964
G1 X21.819
Z-1.4
X15.819
Z-1.8 F150
X4 F160
G2 X-0.5 Y6.5 I0 J4.5
G1 Y23.5
G2 X4 Y28 I4.5 J0
G3 X4.3 Y28.3 I0 J0.3
G1 Y28.6
G19 G3 Y28.9 Z-1.5 J0 K0.3
G0 Z4
X3.7
Z3
G1 Z0.517 F150
Z-1.65
G2 Y28.6 Z-1.95 J-0.3 K0 F160
G1 Y28.3
G17 G3 X4 Y28 I0.3 J0
G1 X15.819
Z-1.4
X21.819
Z-1.95 F150
X33.638 F160
G3 X34.787 Y28.536 I0 J1.5
G2 X42.889 Y28.889 I4.213 J-3.536
G1 X50.768 Y21.01
Z-1.4
X55.01 Y16.768
Z-1.95 F150
X62.889 Y8.889 F160
G2 X58.141 Y-0.433 I-3.889 J-3.889
G1 X38.269
G2 X37.995 Y-0.407 I0 J1.5
X34.787 Y1.464 I1.005 J5.407
G3 X33.638 Y2 I-1.149 J-0.964
G1 X21.819
Z-1.4
X15.819
Z-1.95 F150
X4 F160
G2 X-0.5 Y6.5 I0 J4.5
G1 Y23.5
G2 X4 Y28 I4.5 J0
G3 X4.3 Y28.3 I0 J0.3
G1 Y28.6
G19 G3 Y28.9 Z-1.65 J0 K0.3
G0 Z4
X3.7
Z3
G1 Z0.367 F150
Z-1.8
G2 Y28.6 Z-2.1 J-0.3 K0 F160
G1 Y28.3
G17 G3 X4 Y28 I0.3 J0
G1 X15.819
Z-1.4
X21.819
Z-2.1 F150
X33.638 F160
G3 X34.787 Y28.536 I0 J1.5
G2 X42.889 Y28.889 I4.213 J-3.536
G1 X50.768 Y21.01
Z-1.4
X55.01 Y16.768
Z-2.1 F150
X62.889 Y8.889 F160
G2 X58.141 Y-0.433 I-3.889 J-3.889
G1 X38.269
G2 X37.995 Y-0.407 I0 J1.5
X34.787 Y1.464 I1.005 J5.407
G3 X33.638 Y2 I-1.149 J-0.964
G1 X21.819
Z-1.4
X15.819
Z-2.1 F150
X4 F160
G2 X-0.5 Y6.5 I0 J4.5
G1 Y23.5
G2 X4 Y28 I4.5 J0
G3 X4.3 Y28.3 I0 J0.3
G1 Y28.6
G19 G3 Y28.9 Z-1.8 J0 K0.3
G0 Z4
X3.7
Z3
G1 Z0.217 F150
Z-1.85
G2 Y28.6 Z-2.15 J-0.3 K0 F160
G1 Y28.3
G17 G3 X4 Y28 I0.3 J0
G1 X15.819
Z-1.4
X21.819
Z-2.15 F150
X33.638 F160
G3 X34.787 Y28.536 I0 J1.5
G2 X42.889 Y28.889 I4.213 J-3.536
G1 X50.768 Y21.01
Z-1.4
X55.01 Y16.768
Z-2.15 F150
X62.889 Y8.889 F160
G2 X58.141 Y-0.433 I-3.889 J-3.889
G1 X38.269
G2 X37.995 Y-0.407 I0 J1.5
X34.787 Y1.464 I1.005 J5.407
G3 X33.638 Y2 I-1.149 J-0.964
G1 X21.819
Z-1.4
X15.819
Z-2.15 F150
X4 F160
G2 X-0.5 Y6.5 I0 J4.5
G1 Y23.5
G2 X4 Y28 I4.5 J0
G3 X4.3 Y28.3 I0 J0.3
G1 Y28.6
G19 G3 Y28.9 Z-1.85 J0 K0.3
G0 Z9
G17
M9
G28 G91 Z0
G90
G28 G91 X0 Y0
G90
M5
M30
