(1001)
(T1  D=3 CR=2.5 - ZMIN=-2.2 - bullnose end mill)
G90 G94
G17
G21
G28 G91 Z0
G90

(Drill1)
T1
S6000 M3
G54
M8
G0 X7.406 Y18.804
Z8
Z3
G1 Z-2.2 F140
G0 Z3
X9.599 Y7.006
G1 Z-2.2 F140
G0 Z3
X23.364 Y9.565
G1 Z-2.2 F140
G0 Z3
X21.171 Y21.363
G1 Z-2.2 F140
G0 Z3
X38.136 Y28.585
G1 Z-2.2 F140
G0 Z3
X41.791 Y8.922
G1 Z-2.2 F140
G0 Z3
X61.455 Y12.577
G1 Z-2.2 F140
G0 Z3
Z8

(2D Contour1)
X2.718 Y25.968
Z8
Z3
G1 Z1.2 F140
Z0.1
X2.72 Y25.961 Z0.033 F160
X2.724 Y25.939 Z-0.03
X2.73 Y25.904 Z-0.087
X2.739 Y25.857 Z-0.135
X2.749 Y25.801 Z-0.17
X2.761 Y25.739 Z-0.192
X2.773 Y25.673 Z-0.2
X2.828 Y25.378
G3 X3.178 Y25.138 I0.295 J0.055
G1 X32.317 Y30.554
G3 X33.348 Y31.291 I-0.274 J1.475
G2 X41.249 Y33.119 I4.788 J-2.706
G1 X64.567 Y17.111
G2 X61.603 Y7.078 I-3.113 J-4.534
G1 X42.066 Y3.447
G2 X41.792 Y3.422 I-0.274 J1.475
X38.296 Y4.675 I0 J5.5
G3 X37.068 Y4.992 I-0.953 J-1.158
G1 X7.929 Y-0.424
G2 X2.683 Y3.178 I-0.822 J4.424
G1 X-0.424 Y19.891
G2 X3.178 Y25.138 I4.424 J0.822
G3 X3.418 Y25.488 I-0.055 J0.295
G1 X3.363 Y25.783
X3.351 Y25.848 Z-0.192
X3.339 Y25.911 Z-0.17
X3.329 Y25.967 Z-0.135
X3.32 Y26.013 Z-0.087
X3.314 Y26.048 Z-0.03
X3.309 Y26.07 Z0.033
X3.308 Y26.078 Z0.1
G0 Z3
X2.718 Y25.968
G1 Z2.167 F140
Z-0.1
X2.72 Y25.961 Z-0.167 F160
X2.724 Y25.939 Z-0.23
X2.73 Y25.904 Z-0.287
X2.739 Y25.857 Z-0.335
X2.749 Y25.801 Z-0.37
X2.761 Y25.739 Z-0.392
X2.773 Y25.673 Z-0.4
X2.828 Y25.378
G3 X3.178 Y25.138 I0.295 J0.055
G1 X32.317 Y30.554
G3 X33.348 Y31.291 I-0.274 J1.475
G2 X41.249 Y33.119 I4.788 J-2.706
G1 X64.567 Y17.111
G2 X61.603 Y7.078 I-3.113 J-4.534
G1 X42.066 Y3.447
G2 X41.792 Y3.422 I-0.274 J1.475
X38.296 Y4.675 I0 J5.5
G3 X37.068 Y4.992 I-0.953 J-1.158
G1 X7.929 Y-0.424
G2 X2.683 Y3.178 I-0.822 J4.424
G1 X-0.424 Y19.891
G2 X3.178 Y25.138 I4.424 J0.822
G3 X3.418 Y25.488 I-0.055 J0.295
G1 X3.363 Y25.783
X3.351 Y25.848 Z-0.392
X3.339 Y25.911 Z-0.37
X3.329 Y25.967 Z-0.335
X3.32 Y26.013 Z-0.287
X3.314 Y26.048 Z-0.23
X3.309 Y26.07 Z-0.167
X3.308 Y26.078 Z-0.1
G0 Z3
X2.718 Y25.968
G1 Z1.967 F140
Z-0.3
X2.72 Y25.961 Z-0.367 F160
X2.724 Y25.939 Z-0.43
X2.73 Y25.904 Z-0.487
X2.739 Y25.857 Z-0.535
X2.749 Y25.801 Z-0.57
X2.761 Y25.739 Z-0.592
X2.773 Y25.673 Z-0.6
X2.828 Y25.378
G3 X3.178 Y25.138 I0.295 J0.055
G1 X32.317 Y30.554
G3 X33.348 Y31.291 I-0.274 J1.475
G2 X41.249 Y33.119 I4.788 J-2.706
G1 X64.567 Y17.111
G2 X61.603 Y7.078 I-3.113 J-4.534
G1 X42.066 Y3.447
G2 X41.792 Y3.422 I-0.274 J1.475
X38.296 Y4.675 I0 J5.5
G3 X37.068 Y4.992 I-0.953 J-1.158
G1 X7.929 Y-0.424
G2 X2.683 Y3.178 I-0.822 J4.424
G1 X-0.424 Y19.891
G2 X3.178 Y25.138 I4.424 J0.822
G3 X3.418 Y25.488 I-0.055 J0.295
G1 X3.363 Y25.783
X3.351 Y25.848 Z-0.592
X3.339 Y25.911 Z-0.57
X3.329 Y25.967 Z-0.535
X3.32 Y26.013 Z-0.487
X3.314 Y26.048 Z-0.43
X3.309 Y26.07 Z-0.367
X3.308 Y26.078 Z-0.3
G0 Z3
X2.718 Y25.968
G1 Z1.767 F140
Z-0.5
X2.72 Y25.961 Z-0.567 F160
X2.724 Y25.939 Z-0.63
X2.73 Y25.904 Z-0.687
X2.739 Y25.857 Z-0.735
X2.749 Y25.801 Z-0.77
X2.761 Y25.739 Z-0.792
X2.773 Y25.673 Z-0.8
X2.828 Y25.378
G3 X3.178 Y25.138 I0.295 J0.055
G1 X32.317 Y30.554
G3 X33.348 Y31.291 I-0.274 J1.475
G2 X41.249 Y33.119 I4.788 J-2.706
G1 X64.567 Y17.111
G2 X61.603 Y7.078 I-3.113 J-4.534
G1 X42.066 Y3.447
G2 X41.792 Y3.422 I-0.274 J1.475
X38.296 Y4.675 I0 J5.5
G3 X37.068 Y4.992 I-0.953 J-1.158
G1 X7.929 Y-0.424
G2 X2.683 Y3.178 I-0.822 J4.424
G1 X-0.424 Y19.891
G2 X3.178 Y25.138 I4.424 J0.822
G3 X3.418 Y25.488 I-0.055 J0.295
G1 X3.363 Y25.783
X3.351 Y25.848 Z-0.792
X3.339 Y25.911 Z-0.77
X3.329 Y25.967 Z-0.735
X3.32 Y26.013 Z-0.687
X3.314 Y26.048 Z-0.63
X3.309 Y26.07 Z-0.567
X3.308 Y26.078 Z-0.5
G0 Z3
X2.718 Y25.968
G1 Z1.567 F140
Z-0.7
X2.72 Y25.961 Z-0.767 F160
X2.724 Y25.939 Z-0.83
X2.73 Y25.904 Z-0.887
X2.739 Y25.857 Z-0.935
X2.749 Y25.801 Z-0.97
X2.761 Y25.739 Z-0.992
X2.773 Y25.673 Z-1
X2.828 Y25.378
G3 X3.178 Y25.138 I0.295 J0.055
G1 X32.317 Y30.554
G3 X33.348 Y31.291 I-0.274 J1.475
G2 X41.249 Y33.119 I4.788 J-2.706
G1 X64.567 Y17.111
G2 X61.603 Y7.078 I-3.113 J-4.534
G1 X42.066 Y3.447
G2 X41.792 Y3.422 I-0.274 J1.475
X38.296 Y4.675 I0 J5.5
G3 X37.068 Y4.992 I-0.953 J-1.158
G1 X7.929 Y-0.424
G2 X2.683 Y3.178 I-0.822 J4.424
G1 X-0.424 Y19.891
G2 X3.178 Y25.138 I4.424 J0.822
G3 X3.418 Y25.488 I-0.055 J0.295
G1 X3.363 Y25.783
X3.351 Y25.848 Z-0.992
X3.339 Y25.911 Z-0.97
X3.329 Y25.967 Z-0.935
X3.32 Y26.013 Z-0.887
X3.314 Y26.048 Z-0.83
X3.309 Y26.07 Z-0.767
X3.308 Y26.078 Z-0.7
G0 Z3
X2.718 Y25.968
G1 Z1.367 F140
Z-0.9
X2.72 Y25.961 Z-0.967 F160
X2.724 Y25.939 Z-1.03
X2.73 Y25.904 Z-1.087
X2.739 Y25.857 Z-1.135
X2.749 Y25.801 Z-1.17
X2.761 Y25.739 Z-1.192
X2.773 Y25.673 Z-1.2
X2.828 Y25.378
G3 X3.178 Y25.138 I0.295 J0.055
G1 X32.317 Y30.554
G3 X33.348 Y31.291 I-0.274 J1.475
G2 X41.249 Y33.119 I4.788 J-2.706
G1 X64.567 Y17.111
G2 X61.603 Y7.078 I-3.113 J-4.534
G1 X42.066 Y3.447
G2 X41.792 Y3.422 I-0.274 J1.475
X38.296 Y4.675 I0 J5.5
G3 X37.068 Y4.992 I-0.953 J-1.158
G1 X7.929 Y-0.424
G2 X2.683 Y3.178 I-0.822 J4.424
G1 X-0.424 Y19.891
G2 X3.178 Y25.138 I4.424 J0.822
G3 X3.418 Y25.488 I-0.055 J0.295
G1 X3.363 Y25.783
X3.351 Y25.848 Z-1.192
X3.339 Y25.911 Z-1.17
X3.329 Y25.967 Z-1.135
X3.32 Y26.013 Z-1.087
X3.314 Y26.048 Z-1.03
X3.309 Y26.07 Z-0.967
X3.308 Y26.078 Z-0.9
G0 Z3
X2.718 Y25.968
G1 Z1.167 F140
Z-1.1
X2.72 Y25.961 Z-1.167 F160
X2.724 Y25.939 Z-1.23
X2.73 Y25.904 Z-1.287
X2.739 Y25.857 Z-1.335
X2.749 Y25.801 Z-1.37
X2.761 Y25.739 Z-1.392
X2.773 Y25.673 Z-1.4
X2.828 Y25.378
G3 X3.178 Y25.138 I0.295 J0.055
G1 X32.317 Y30.554
G3 X33.348 Y31.291 I-0.274 J1.475
G2 X41.249 Y33.119 I4.788 J-2.706
G1 X64.567 Y17.111
G2 X61.603 Y7.078 I-3.113 J-4.534
G1 X42.066 Y3.447
G2 X41.792 Y3.422 I-0.274 J1.475
X38.296 Y4.675 I0 J5.5
G3 X37.068 Y4.992 I-0.953 J-1.158
G1 X7.929 Y-0.424
G2 X2.683 Y3.178 I-0.822 J4.424
G1 X-0.424 Y19.891
G2 X3.178 Y25.138 I4.424 J0.822
G3 X3.418 Y25.488 I-0.055 J0.295
G1 X3.363 Y25.783
X3.351 Y25.848 Z-1.392
X3.339 Y25.911 Z-1.37
X3.329 Y25.967 Z-1.335
X3.32 Y26.013 Z-1.287
X3.314 Y26.048 Z-1.23
X3.309 Y26.07 Z-1.167
X3.308 Y26.078 Z-1.1
G0 Z3
X2.718 Y25.968
G1 Z0.967 F140
Z-1.3
X2.72 Y25.961 Z-1.367 F160
X2.724 Y25.939 Z-1.43
X2.73 Y25.904 Z-1.487
X2.739 Y25.857 Z-1.535
X2.749 Y25.801 Z-1.57
X2.761 Y25.739 Z-1.592
X2.773 Y25.673 Z-1.6
X2.828 Y25.378
G3 X3.178 Y25.138 I0.295 J0.055
G1 X15.289 Y27.389
Z-1.46
X20.205 Y28.303
Z-1.6 F140
X32.317 Y30.554 F160
G3 X33.348 Y31.291 I-0.274 J1.475
G2 X41.249 Y33.119 I4.788 J-2.706
G1 X50.847 Y26.53
Z-1.46
X54.969 Y23.7
Z-1.6 F140
X64.567 Y17.111 F160
G2 X61.603 Y7.078 I-3.113 J-4.534
G1 X42.066 Y3.447
G2 X41.792 Y3.422 I-0.274 J1.475
X38.296 Y4.675 I0 J5.5
G3 X37.068 Y4.992 I-0.953 J-1.158
G1 X24.957 Y2.741
Z-1.46
X20.041 Y1.827
Z-1.6 F140
X7.929 Y-0.424 F160
G2 X2.683 Y3.178 I-0.822 J4.424
G1 X-0.424 Y19.891
G2 X3.178 Y25.138 I4.424 J0.822
G3 X3.418 Y25.488 I-0.055 J0.295
G1 X3.363 Y25.783
X3.351 Y25.848 Z-1.592
X3.339 Y25.911 Z-1.57
X3.329 Y25.967 Z-1.535
X3.32 Y26.013 Z-1.487
X3.314 Y26.048 Z-1.43
X3.309 Y26.07 Z-1.367
X3.308 Y26.078 Z-1.3
G0 Z3
X2.718 Y25.968
G1 Z0.767 F140
Z-1.5
X2.72 Y25.961 Z-1.567 F160
X2.724 Y25.939 Z-1.63
X2.73 Y25.904 Z-1.687
X2.739 Y25.857 Z-1.735
X2.749 Y25.801 Z-1.77
X2.761 Y25.739 Z-1.792
X2.773 Y25.673 Z-1.8
X2.828 Y25.378
G3 X3.178 Y25.138 I0.295 J0.055
G1 X15.289 Y27.389
Z-1.46
X20.205 Y28.303
Z-1.8 F140
X32.317 Y30.554 F160
G3 X33.348 Y31.291 I-0.274 J1.475
G2 X41.249 Y33.119 I4.788 J-2.706
G1 X50.847 Y26.53
Z-1.46
X54.969 Y23.7
Z-1.8 F140
X64.567 Y17.111 F160
G2 X61.603 Y7.078 I-3.113 J-4.534
G1 X42.066 Y3.447
G2 X41.792 Y3.422 I-0.274 J1.475
X38.296 Y4.675 I0 J5.5
G3 X37.068 Y4.992 I-0.953 J-1.158
G1 X24.957 Y2.741
Z-1.46
X20.041 Y1.827
Z-1.8 F140
X7.929 Y-0.424 F160
G2 X2.683 Y3.178 I-0.822 J4.424
G1 X-0.424 Y19.891
G2 X3.178 Y25.138 I4.424 J0.822
G3 X3.418 Y25.488 I-0.055 J0.295
G1 X3.363 Y25.783
X3.351 Y25.848 Z-1.792
X3.339 Y25.911 Z-1.77
X3.329 Y25.967 Z-1.735
X3.32 Y26.013 Z-1.687
X3.314 Y26.048 Z-1.63
X3.309 Y26.07 Z-1.567
X3.308 Y26.078 Z-1.5
G0 Z3
X2.718 Y25.968
G1 Z0.567 F140
Z-1.7
X2.72 Y25.961 Z-1.767 F160
X2.724 Y25.939 Z-1.83
X2.73 Y25.904 Z-1.887
X2.739 Y25.857 Z-1.935
X2.749 Y25.801 Z-1.97
X2.761 Y25.739 Z-1.992
X2.773 Y25.673 Z-2
X2.828 Y25.378
G3 X3.178 Y25.138 I0.295 J0.055
G1 X15.289 Y27.389
Z-1.46
X20.205 Y28.303
Z-2 F140
X32.317 Y30.554 F160
G3 X33.348 Y31.291 I-0.274 J1.475
G2 X41.249 Y33.119 I4.788 J-2.706
G1 X50.847 Y26.53
Z-1.46
X54.969 Y23.7
Z-2 F140
X64.567 Y17.111 F160
G2 X61.603 Y7.078 I-3.113 J-4.534
G1 X42.066 Y3.447
G2 X41.792 Y3.422 I-0.274 J1.475
X38.296 Y4.675 I0 J5.5
G3 X37.068 Y4.992 I-0.953 J-1.158
G1 X24.957 Y2.741
Z-1.46
X20.041 Y1.827
Z-2 F140
X7.929 Y-0.424 F160
G2 X2.683 Y3.178 I-0.822 J4.424
G1 X-0.424 Y19.891
G2 X3.178 Y25.138 I4.424 J0.822
G3 X3.418 Y25.488 I-0.055 J0.295
G1 X3.363 Y25.783
X3.351 Y25.848 Z-1.992
X3.339 Y25.911 Z-1.97
X3.329 Y25.967 Z-1.935
X3.32 Y26.013 Z-1.887
X3.314 Y26.048 Z-1.83
X3.309 Y26.07 Z-1.767
X3.308 Y26.078 Z-1.7
G0 Z3
X2.718 Y25.968
G1 Z0.367 F140
Z-1.9
X2.72 Y25.961 Z-1.967 F160
X2.724 Y25.939 Z-2.03
X2.73 Y25.904 Z-2.087
X2.739 Y25.857 Z-2.135
X2.749 Y25.801 Z-2.17
X2.761 Y25.739 Z-2.192
X2.773 Y25.673 Z-2.2
X2.828 Y25.378
G3 X3.178 Y25.138 I0.295 J0.055
G1 X15.289 Y27.389
Z-1.46
X20.205 Y28.303
Z-2.2 F140
X32.317 Y30.554 F160
G3 X33.348 Y31.291 I-0.274 J1.475
G2 X41.249 Y33.119 I4.788 J-2.706
G1 X50.847 Y26.53
Z-1.46
X54.969 Y23.7
Z-2.2 F140
X64.567 Y17.111 F160
G2 X61.603 Y7.078 I-3.113 J-4.534
G1 X42.066 Y3.447
G2 X41.792 Y3.422 I-0.274 J1.475
X38.296 Y4.675 I0 J5.5
G3 X37.068 Y4.992 I-0.953 J-1.158
G1 X24.957 Y2.741
Z-1.46
X20.041 Y1.827
Z-2.2 F140
X7.929 Y-0.424 F160
G2 X2.683 Y3.178 I-0.822 J4.424
G1 X-0.424 Y19.891
G2 X3.178 Y25.138 I4.424 J0.822
G3 X3.418 Y25.488 I-0.055 J0.295
G1 X3.363 Y25.783
X3.351 Y25.848 Z-2.192
X3.339 Y25.911 Z-2.17
X3.329 Y25.967 Z-2.135
X3.32 Y26.013 Z-2.087
X3.314 Y26.048 Z-2.03
X3.309 Y26.07 Z-1.967
X3.308 Y26.078 Z-1.9
G0 Z8
M9
G28 G91 Z0
G90
G28 G91 X0 Y0
G90
M5
M30
