;generated by ffslicer 1.27.0 12/16/20 15:44:10
;layer_height: 0.2
;perimeter_shells: 2
;top_solid_layers: 4
;bottom_solid_layers: 3
;fill_density: 15%
;fill_pattern: hexagon
;base_print_speed: 50
;travel_speed: 80
;right_extruder_temperature: 250
;left_extruder_temperature: 0
;platform_temperature: 70
;right_extruder_temperature_raft0: 0
;left_extruder_temperature_raft0: 0
;right_extruder_temperature_reset: 
;left_extruder_temperature_reset: 
;start gcode
M140 S70 T0
M104 S250 T0
M104 S0 T1
G90
G28
M190 S70 T0
M109 S250 T0
M109 S0 T1
G92 E.0000
;layer_count: 130
M108 T0
G1 X119.57 Y102.50 F4800
;preExtrude:0.20
;preExtruder0
M106 S255
G1 Z.200 F420
G1 X119.57 Y102.50 F4800
G1 X145.49 Y102.50 E3.3105 F1200
G1 X145.52 Y112.23 E4.5532
G1 X145.52 Y129.43 E6.7500
G1 X143.74 Y133.48 E7.3150
G1 X139.35 Y136.27 E7.9793
G1 X109.32 Y136.27 E11.8147
G1 X105.27 Y134.49 E12.3797
G1 X102.48 Y130.11 E13.0430
G1 X102.48 Y112.24 E15.3253
;raft
;layer:0.30
;shell
G1 E10.3253 F2700
G1 Z.300 F420
G1 X111.08 Y111.10 F4200
G1 E15.3253 F2700
G1 X111.08 Y111.10 F4200
G1 X136.92 Y111.10 E16.5629 F600
G1 X136.92 Y112.25 E16.6180
G1 X136.92 Y127.67 E17.3565
G1 X111.08 Y127.67 E18.5941
G1 X111.08 Y112.25 E19.3327
G1 X111.08 Y111.10 E19.3877
G1 X110.68 Y110.70 F4200
G1 X137.32 Y110.70 E20.6636 F600
G1 X137.32 Y112.25 E20.7379
G1 X137.32 Y127.71 E21.4783
G1 X137.24 Y127.90 E21.4882
G1 X136.97 Y128.07 E21.5035
G1 X111.04 Y128.07 E22.7454
G1 X110.85 Y127.99 E22.7553
G1 X110.68 Y127.72 E22.7706
G1 X110.68 Y112.25 E23.5115
G1 X110.68 Y110.70 E23.5857
;infill
G1 E18.5857 F2700
G1 X111.42 Y127.32 F4200
G1 E23.5857 F2700
G1 X111.42 Y127.32 F4200
G1 X112.00 Y127.33 E23.6135 F600
G1 X111.42 Y126.75 E23.6528
G1 X111.42 Y126.18 E23.6801
G1 X112.57 Y127.33 E23.7580
G1 X113.14 Y127.33 E23.7853
G1 X111.42 Y125.60 E23.9021
G1 X111.42 Y125.03 E23.9294
G1 X113.72 Y127.33 E24.0852
G1 X114.29 Y127.33 E24.1125
G1 X111.42 Y124.46 E24.3069
G1 X111.42 Y123.89 E24.3342
G1 X114.86 Y127.33 E24.5672
G1 X115.44 Y127.33 E24.5950
G1 X111.42 Y123.31 E24.8673
G1 X111.42 Y122.74 E24.8946
G1 X116.01 Y127.33 E25.2055
G1 X116.58 Y127.33 E25.2328
G1 X111.42 Y122.17 E25.5823
G1 X111.42 Y121.59 E25.6100
G1 X117.15 Y127.33 E25.9985
G1 X117.73 Y127.33 E26.0263
G1 X111.42 Y121.02 E26.4537
G1 X111.42 Y120.45 E26.4810
G1 X118.30 Y127.33 E26.9470
G1 X118.87 Y127.33 E26.9743
G1 X111.42 Y119.88 E27.4789
G1 X111.42 Y119.30 E27.5067
G1 X119.45 Y127.33 E28.0506
G1 X120.02 Y127.33 E28.0779
G1 X111.42 Y118.73 E28.6604
G1 X111.42 Y118.16 E28.6877
G1 X120.59 Y127.33 E29.3088
G1 X121.16 Y127.33 E29.3361
G1 X111.42 Y117.58 E29.9962
G1 X111.42 Y117.01 E30.0235
G1 X121.74 Y127.33 E30.7225
G1 X122.31 Y127.33 E30.7498
G1 X111.42 Y116.44 E31.4874
G1 X111.42 Y115.87 E31.5147
G1 X122.88 Y127.33 E32.2909
G1 X123.45 Y127.33 E32.3182
G1 X111.42 Y115.29 E33.1334
G1 X111.42 Y114.72 E33.1607
G1 X124.03 Y127.33 E34.0148
G1 X124.60 Y127.33 E34.0421
G1 X111.42 Y114.15 E34.9348
G1 X111.42 Y113.58 E34.9621
G1 X125.17 Y127.33 E35.8934
G1 X125.75 Y127.33 E35.9212
G1 X111.42 Y113.00 E36.8918
G1 X111.42 Y112.43 E36.9191
G1 X126.32 Y127.33 E37.9284
G1 X126.89 Y127.33 E37.9557
G1 X111.42 Y111.86 E39.0035
G1 X111.42 Y111.44 E39.0236
G1 X111.57 Y111.44 E39.0308
G1 X127.46 Y127.33 E40.1071
G1 X128.04 Y127.33 E40.1349
G1 X112.15 Y111.44 E41.2111
G1 X112.72 Y111.44 E41.2384
G1 X128.61 Y127.33 E42.3147
G1 X129.18 Y127.33 E42.3420
G1 X113.29 Y111.44 E43.4183
G1 X113.86 Y111.44 E43.4456
G1 X129.75 Y127.33 E44.5219
G1 X130.33 Y127.33 E44.5497
G1 X114.44 Y111.44 E45.6259
G1 X115.01 Y111.44 E45.6532
G1 X130.90 Y127.33 E46.7295
G1 X131.47 Y127.33 E46.7568
G1 X115.58 Y111.44 E47.8331
G1 X116.16 Y111.44 E47.8609
G1 X132.05 Y127.33 E48.9372
G1 X132.62 Y127.33 E48.9645
G1 X116.73 Y111.44 E50.0407
G1 X117.30 Y111.44 E50.0680
G1 X133.19 Y127.33 E51.1443
G1 X133.76 Y127.33 E51.1716
G1 X117.87 Y111.44 E52.2479
G1 X118.45 Y111.44 E52.2757
G1 X134.34 Y127.33 E53.3520
G1 X134.91 Y127.33 E53.3793
G1 X119.02 Y111.44 E54.4555
G1 X119.59 Y111.44 E54.4828
G1 X135.48 Y127.33 E55.5591
G1 X136.05 Y127.33 E55.5864
G1 X120.17 Y111.44 E56.6624
G1 X120.74 Y111.44 E56.6897
G1 X136.58 Y127.28 E57.7626
G1 X136.58 Y126.71 E57.7899
G1 X121.31 Y111.44 E58.8242
G1 X121.88 Y111.44 E58.8515
G1 X136.58 Y126.14 E59.8471
G1 X136.58 Y125.56 E59.8749
G1 X122.46 Y111.44 E60.8313
G1 X123.03 Y111.44 E60.8586
G1 X136.58 Y124.99 E61.7764
G1 X136.58 Y124.42 E61.8037
G1 X123.60 Y111.44 E62.6829
G1 X124.17 Y111.44 E62.7102
G1 X136.58 Y123.84 E63.5504
G1 X136.58 Y123.27 E63.5777
G1 X124.75 Y111.44 E64.3790
G1 X125.32 Y111.44 E64.4063
G1 X136.58 Y122.70 E65.1690
G1 X136.58 Y122.13 E65.1963
G1 X125.89 Y111.44 E65.9203
G1 X126.47 Y111.44 E65.9481
G1 X136.58 Y121.55 E66.6329
G1 X136.58 Y120.98 E66.6602
G1 X127.04 Y111.44 E67.3064
G1 X127.61 Y111.44 E67.3337
G1 X136.58 Y120.41 E67.9412
G1 X136.58 Y119.83 E67.9690
G1 X128.18 Y111.44 E68.5376
G1 X128.76 Y111.44 E68.5654
G1 X136.58 Y119.26 E69.0951
G1 X136.58 Y118.69 E69.1224
G1 X129.33 Y111.44 E69.6134
G1 X129.90 Y111.44 E69.6407
G1 X136.58 Y118.12 E70.0932
G1 X136.58 Y117.54 E70.1210
G1 X130.47 Y111.44 E70.5345
G1 X131.05 Y111.44 E70.5623
G1 X136.58 Y116.97 E70.9368
G1 X136.58 Y116.40 E70.9641
G1 X131.62 Y111.44 E71.3001
G1 X132.19 Y111.44 E71.3274
G1 X136.58 Y115.83 E71.6247
G1 X136.58 Y115.25 E71.6525
G1 X132.77 Y111.44 E71.9106
G1 X133.34 Y111.44 E71.9379
G1 X136.58 Y114.68 E72.1573
G1 X136.58 Y114.11 E72.1846
G1 X133.91 Y111.44 E72.3655
G1 X134.48 Y111.44 E72.3928
G1 X136.58 Y113.53 E72.5346
G1 X136.58 Y112.96 E72.5619
G1 X135.06 Y111.44 E72.6649
G1 X135.63 Y111.44 E72.6922
G1 X136.58 Y112.39 E72.7565
G1 X136.58 Y111.81 E72.7843
G1 X136.20 Y111.44 E72.8097
;layer:0.20
;shell
G1 E67.8097 F2700
G1 Z.500 F420
G1 X110.83 Y111.10 F4800
G1 E72.8097 F2700
G1 X110.83 Y111.10 F4800
G1 X137.17 Y111.10 E73.6508 F1500
G1 X137.19 Y118.80 E73.8966
G1 X137.19 Y127.68 E74.1801
G1 X137.12 Y127.87 E74.1866
G1 X136.93 Y127.94 E74.1931
G1 X111.07 Y127.94 E75.0188
G1 X110.88 Y127.87 E75.0253
G1 X110.81 Y127.68 E75.0317
G1 X110.81 Y118.80 E75.3153
G1 X110.83 Y111.10 E75.5611
G1 X110.43 Y110.70 F4800
G1 X137.57 Y110.70 E76.4277 F1500
G1 X137.59 Y118.80 E76.6863
G1 X137.59 Y127.73 E76.9715
G1 X137.53 Y127.97 E76.9794
G1 X137.41 Y128.16 E76.9865
G1 X137.22 Y128.28 E76.9937
G1 X136.98 Y128.34 E77.0016
G1 X111.03 Y128.34 E77.8302
G1 X110.78 Y128.28 E77.8384
G1 X110.59 Y128.16 E77.8456
G1 X110.47 Y127.97 E77.8527
G1 X110.41 Y127.73 E77.8606
G1 X110.41 Y118.79 E78.1461
G1 X110.43 Y110.70 E78.4044
;infill
G1 X111.17 Y111.94 F4800
G1 X111.67 Y111.44 E78.4270 F2100
G1 X112.24 Y111.44 E78.4452
G1 X111.17 Y112.51 E78.4935
G1 X111.17 Y113.08 E78.5117
G1 X112.80 Y111.44 E78.5855
G1 X113.37 Y111.44 E78.6037
G1 X111.16 Y113.65 E78.7035
G1 X111.16 Y114.21 E78.7214
G1 X113.94 Y111.44 E78.8467
G1 X114.50 Y111.44 E78.8646
G1 X111.16 Y114.78 E79.0154
G1 X111.16 Y115.35 E79.0336
G1 X115.07 Y111.44 E79.2102
G1 X115.63 Y111.44 E79.2281
G1 X111.16 Y115.91 E79.4299
G1 X111.16 Y116.48 E79.4481
G1 X116.20 Y111.44 E79.6757
G1 X116.76 Y111.44 E79.6936
G1 X111.16 Y117.05 E79.9467
G1 X111.15 Y117.62 E79.9649
G1 X117.33 Y111.44 E80.2439
G1 X117.90 Y111.44 E80.2621
G1 X111.15 Y118.18 E80.5667
G1 X111.15 Y118.75 E80.5849
G1 X118.46 Y111.44 E80.9150
G1 X119.03 Y111.44 E80.9332
G1 X111.15 Y119.32 E81.2890
G1 X111.15 Y119.88 E81.3069
G1 X119.59 Y111.44 E81.6880
G1 X120.16 Y111.44 E81.7062
G1 X111.15 Y120.45 E82.1131
G1 X111.15 Y121.01 E82.1310
G1 X120.72 Y111.44 E82.5631
G1 X121.29 Y111.44 E82.5813
G1 X111.15 Y121.58 E83.0392
G1 X111.15 Y122.15 E83.0574
G1 X121.86 Y111.44 E83.5410
G1 X122.42 Y111.44 E83.5589
G1 X111.15 Y122.71 E84.0678
G1 X111.15 Y123.28 E84.0860
G1 X122.99 Y111.44 E84.6206
G1 X123.55 Y111.44 E84.6385
G1 X111.15 Y123.84 E85.1984
G1 X111.15 Y124.41 E85.2166
G1 X124.12 Y111.44 E85.8023
G1 X124.68 Y111.44 E85.8202
G1 X111.15 Y124.97 E86.4311
G1 X111.15 Y125.54 E86.4493
G1 X125.25 Y111.44 E87.0860
G1 X125.82 Y111.44 E87.1042
G1 X111.15 Y126.11 E87.7667
G1 X111.15 Y126.67 E87.7845
G1 X126.38 Y111.44 E88.4723
G1 X126.95 Y111.44 E88.4905
G1 X111.15 Y127.24 E89.2039
G1 X111.15 Y127.57 E89.2145
G1 X111.35 Y127.60 E89.2209
G1 X127.51 Y111.44 E89.9506
G1 X128.08 Y111.44 E89.9688
G1 X111.92 Y127.60 E90.6986
G1 X112.49 Y127.60 E90.7168
G1 X128.64 Y111.44 E91.4462
G1 X129.21 Y111.44 E91.4644
G1 X113.05 Y127.60 E92.1941
G1 X113.62 Y127.60 E92.2124
G1 X129.77 Y111.44 E92.9418
G1 X130.34 Y111.44 E92.9600
G1 X114.18 Y127.60 E93.6898
G1 X114.75 Y127.60 E93.7080
G1 X130.91 Y111.44 E94.4377
G1 X131.47 Y111.44 E94.4555
G1 X115.31 Y127.60 E95.1853
G1 X115.88 Y127.60 E95.2035
G1 X132.04 Y111.44 E95.9332
G1 X132.60 Y111.44 E95.9511
G1 X116.45 Y127.60 E96.6805
G1 X117.01 Y127.60 E96.6984
G1 X133.17 Y111.44 E97.4281
G1 X133.74 Y111.44 E97.4463
G1 X117.58 Y127.60 E98.1761
G1 X118.14 Y127.60 E98.1939
G1 X134.30 Y111.44 E98.9236
G1 X134.87 Y111.44 E98.9418
G1 X118.71 Y127.60 E99.6716
G1 X119.27 Y127.60 E99.6894
G1 X135.43 Y111.44 E100.4192
G1 X136.00 Y111.44 E100.4374
G1 X119.84 Y127.60 E101.1671
G1 X120.41 Y127.60 E101.1853
G1 X136.56 Y111.44 E101.9148
G1 X136.83 Y111.44 E101.9234
G1 X136.83 Y111.74 E101.9329
G1 X120.97 Y127.60 E102.6491
G1 X121.54 Y127.60 E102.6673
G1 X136.83 Y112.30 E103.3580
G1 X136.83 Y112.87 E103.3762
G1 X122.10 Y127.60 E104.0413
G1 X122.67 Y127.60 E104.0595
G1 X136.83 Y113.43 E104.6991
G1 X136.84 Y114.00 E104.7173
G1 X123.23 Y127.60 E105.3317
G1 X123.80 Y127.60 E105.3499
G1 X136.84 Y114.56 E105.9387
G1 X136.84 Y115.13 E105.9569
G1 X124.37 Y127.60 E106.5200
G1 X124.93 Y127.60 E106.5379
G1 X136.84 Y115.69 E107.0757
G1 X136.84 Y116.25 E107.0936
G1 X125.50 Y127.60 E107.6059
G1 X126.06 Y127.60 E107.6238
G1 X136.84 Y116.82 E108.1105
G1 X136.84 Y117.38 E108.1284
G1 X126.63 Y127.60 E108.5897
G1 X127.19 Y127.60 E108.6076
G1 X136.85 Y117.95 E109.0435
G1 X136.85 Y118.51 E109.0614
G1 X127.76 Y127.60 E109.4719
G1 X128.32 Y127.60 E109.4898
G1 X136.85 Y119.07 E109.8749
G1 X136.85 Y119.64 E109.8931
G1 X128.89 Y127.60 E110.2526
G1 X129.46 Y127.60 E110.2708
G1 X136.85 Y120.21 E110.6045
G1 X136.85 Y120.77 E110.6224
G1 X130.02 Y127.60 E110.9308
G1 X130.59 Y127.60 E110.9490
G1 X136.85 Y121.34 E111.2317
G1 X136.85 Y121.90 E111.2495
G1 X131.15 Y127.60 E111.5069
G1 X131.72 Y127.60 E111.5251
G1 X136.85 Y122.47 E111.7568
G1 X136.85 Y123.03 E111.7747
G1 X132.28 Y127.60 E111.9810
G1 X132.85 Y127.60 E111.9992
G1 X136.85 Y123.60 E112.1798
G1 X136.85 Y124.17 E112.1980
G1 X133.41 Y127.60 E112.3532
G1 X133.98 Y127.60 E112.3714
G1 X136.85 Y124.73 E112.5010
G1 X136.85 Y125.30 E112.5192
G1 X134.55 Y127.60 E112.6230
G1 X135.11 Y127.60 E112.6409
G1 X136.85 Y125.86 E112.7195
G1 X136.85 Y126.43 E112.7377
G1 X135.68 Y127.60 E112.7905
G1 X136.24 Y127.60 E112.8084
G1 X136.85 Y126.99 E112.8359
G1 X136.85 Y127.56 E112.8541
G1 X136.81 Y127.60 E112.8559
;percent
;layer:0.20
;shell
G1 E107.8559 F2700
G1 X110.71 Y111.10 F4800
G1 Z.700 F420
G1 E112.8559 F2700
G1 X110.71 Y111.10 F4800
G1 X137.29 Y111.10 E113.7046 F1500
G1 X137.31 Y125.24 E114.1561
G1 X137.31 Y127.69 E114.2343
G1 X137.21 Y127.96 E114.2435
G1 X136.94 Y128.06 E114.2527
G1 X111.06 Y128.06 E115.0791
G1 X110.79 Y127.96 E115.0883
G1 X110.69 Y127.69 E115.0975
G1 X110.69 Y125.24 E115.1757
G1 X110.71 Y111.10 E115.6272
G1 X110.31 Y110.70 F4800
G1 X137.69 Y110.70 E116.5014 F1500
G1 X137.71 Y125.24 E116.9657
G1 X137.71 Y127.73 E117.0452
G1 X137.65 Y128.03 E117.0549
G1 X137.49 Y128.25 E117.0636
G1 X137.23 Y128.42 E117.0736
G1 X136.98 Y128.46 E117.0816
G1 X111.02 Y128.46 E117.9105
G1 X110.72 Y128.40 E117.9203
G1 X110.50 Y128.24 E117.9290
G1 X110.33 Y127.98 E117.9389
G1 X110.29 Y127.73 E117.9470
G1 X110.29 Y125.24 E118.0265
G1 X110.31 Y110.70 E118.4908
;infill
G1 E113.4908 F2700
G1 X111.02 Y127.62 F4800
G1 E118.4908 F2700
G1 X111.02 Y127.62 F4800
G1 X111.13 Y127.72 E118.4955 F2100
G1 X111.70 Y127.72 E118.5137
G1 X111.02 Y127.05 E118.5442
G1 X111.02 Y126.48 E118.5624
G1 X112.27 Y127.72 E118.6186
G1 X112.84 Y127.72 E118.6368
G1 X111.02 Y125.90 E118.7190
G1 X111.02 Y125.33 E118.7372
G1 X113.42 Y127.72 E118.8454
G1 X113.99 Y127.72 E118.8636
G1 X111.03 Y124.76 E118.9972
G1 X111.03 Y124.19 E119.0154
G1 X114.56 Y127.72 E119.1748
G1 X115.13 Y127.72 E119.1930
G1 X111.03 Y123.62 E119.3782
G1 X111.03 Y123.05 E119.3964
G1 X115.70 Y127.72 E119.6072
G1 X116.27 Y127.72 E119.6254
G1 X111.03 Y122.48 E119.8621
G1 X111.03 Y121.91 E119.8803
G1 X116.84 Y127.72 E120.1426
G1 X117.42 Y127.72 E120.1611
G1 X111.03 Y121.34 E120.4495
G1 X111.03 Y120.77 E120.4677
G1 X117.99 Y127.72 E120.7817
G1 X118.56 Y127.72 E120.7999
G1 X111.03 Y120.20 E121.1397
G1 X111.03 Y119.63 E121.1579
G1 X119.13 Y127.72 E121.5235
G1 X119.70 Y127.72 E121.5417
G1 X111.03 Y119.06 E121.9329
G1 X111.04 Y118.49 E121.9511
G1 X120.27 Y127.72 E122.3679
G1 X120.84 Y127.72 E122.3861
G1 X111.04 Y117.92 E122.8286
G1 X111.04 Y117.35 E122.8468
G1 X121.41 Y127.72 E123.3151
G1 X121.99 Y127.72 E123.3336
G1 X111.04 Y116.78 E123.8278
G1 X111.04 Y116.21 E123.8461
G1 X122.56 Y127.72 E124.3660
G1 X123.13 Y127.72 E124.3842
G1 X111.04 Y115.64 E124.9299
G1 X111.04 Y115.06 E124.9484
G1 X123.70 Y127.72 E125.5201
G1 X124.27 Y127.72 E125.5383
G1 X111.04 Y114.49 E126.1357
G1 X111.04 Y113.92 E126.1539
G1 X124.84 Y127.72 E126.7771
G1 X125.41 Y127.72 E126.7953
G1 X111.04 Y113.35 E127.4442
G1 X111.04 Y112.78 E127.4624
G1 X125.99 Y127.72 E128.1372
G1 X126.56 Y127.72 E128.1554
G1 X111.05 Y112.21 E128.8558
G1 X111.05 Y111.64 E128.8740
G1 X127.13 Y127.72 E129.6001
G1 X127.70 Y127.72 E129.6183
G1 X111.42 Y111.44 E130.3534
G1 X111.99 Y111.44 E130.3716
G1 X128.27 Y127.72 E131.1068
G1 X128.84 Y127.72 E131.1250
G1 X112.56 Y111.44 E131.8601
G1 X113.13 Y111.44 E131.8783
G1 X129.41 Y127.72 E132.6134
G1 X129.98 Y127.72 E132.6316
G1 X113.70 Y111.44 E133.3667
G1 X114.27 Y111.44 E133.3849
G1 X130.55 Y127.72 E134.1201
G1 X131.13 Y127.72 E134.1386
G1 X114.84 Y111.44 E134.8739
G1 X115.41 Y111.44 E134.8921
G1 X131.70 Y127.72 E135.6275
G1 X132.27 Y127.72 E135.6457
G1 X115.99 Y111.44 E136.3808
G1 X116.56 Y111.44 E136.3990
G1 X132.84 Y127.72 E137.1342
G1 X133.41 Y127.72 E137.1524
G1 X117.13 Y111.44 E137.8875
G1 X117.70 Y111.44 E137.9057
G1 X133.98 Y127.72 E138.6408
G1 X134.55 Y127.72 E138.6590
G1 X118.27 Y111.44 E139.3941
G1 X118.84 Y111.44 E139.4123
G1 X135.13 Y127.72 E140.1477
G1 X135.70 Y127.72 E140.1659
G1 X119.41 Y111.44 E140.9013
G1 X119.99 Y111.44 E140.9198
G1 X136.27 Y127.72 E141.6549
G1 X136.84 Y127.72 E141.6731
G1 X120.56 Y111.44 E142.4082
G1 X121.13 Y111.44 E142.4264
G1 X136.97 Y127.28 E143.1417
G1 X136.97 Y126.71 E143.1599
G1 X121.70 Y111.44 E143.8494
G1 X122.27 Y111.44 E143.8677
G1 X136.97 Y126.14 E144.5314
G1 X136.97 Y125.57 E144.5496
G1 X122.84 Y111.44 E145.1877
G1 X123.41 Y111.44 E145.2059
G1 X136.97 Y125.00 E145.8182
G1 X136.97 Y124.43 E145.8364
G1 X123.98 Y111.44 E146.4230
G1 X124.56 Y111.44 E146.4415
G1 X136.97 Y123.85 E147.0019
G1 X136.97 Y123.28 E147.0201
G1 X125.13 Y111.44 E147.5547
G1 X125.70 Y111.44 E147.5729
G1 X136.97 Y122.71 E148.0818
G1 X136.97 Y122.14 E148.1000
G1 X126.27 Y111.44 E148.5832
G1 X126.84 Y111.44 E148.6014
G1 X136.97 Y121.57 E149.0588
G1 X136.97 Y120.99 E149.0773
G1 X127.41 Y111.44 E149.5087
G1 X127.98 Y111.44 E149.5270
G1 X136.97 Y120.42 E149.9327
G1 X136.97 Y119.85 E149.9509
G1 X128.55 Y111.44 E150.3309
G1 X129.13 Y111.44 E150.3494
G1 X136.96 Y119.28 E150.7032
G1 X136.96 Y118.70 E150.7217
G1 X129.70 Y111.44 E151.0495
G1 X130.27 Y111.44 E151.0677
G1 X136.96 Y118.13 E151.3698
G1 X136.96 Y117.56 E151.3880
G1 X130.84 Y111.44 E151.6644
G1 X131.41 Y111.44 E151.6826
G1 X136.96 Y116.99 E151.9332
G1 X136.96 Y116.42 E151.9514
G1 X131.98 Y111.44 E152.1763
G1 X132.55 Y111.44 E152.1945
G1 X136.96 Y115.84 E152.3934
G1 X136.96 Y115.27 E152.4116
G1 X133.13 Y111.44 E152.5845
G1 X133.70 Y111.44 E152.6027
G1 X136.96 Y114.70 E152.7499
G1 X136.96 Y114.13 E152.7681
G1 X134.27 Y111.44 E152.8896
G1 X134.84 Y111.44 E152.9078
G1 X136.96 Y113.55 E153.0033
G1 X136.95 Y112.98 E153.0215
G1 X135.41 Y111.44 E153.0911
G1 X135.98 Y111.44 E153.1093
G1 X136.95 Y112.41 E153.1531
G1 X136.95 Y111.84 E153.1713
G1 X136.55 Y111.44 E153.1893
;percent
;layer:0.20
